X:1
T:MORMOND BRAES
M:4/4
L:1/4
K:F
 C| F A A3/2 G/2| A F F3/2 F/2| F f e c| d2 c| z/2 c/2| f f f3/2 a/2|\
 d d c c/2c/2| d c f A| G2 F||
